X: 26
T: Toss The Feathers
Z: Rice Paddy
S: https://thesession.org/tunes/138#setting52644
R: reel
M: 4/4
L: 1/8
K: Dmix
|:D2 ED ADED|ABcA GECE|D2 ED ADED|AddB cAGE|
D2 ED ADED|ABcA GE E2|cABG A2 AB|d2 ed cAGE:|
|:Ad d2 Ad d2|Ad d2 ed^cd|eaag a3g eaag aged |
efge afge | dfed cAAG | cABG A2 (3ABc | d2ed cAGE :|

